X:1705
T:Chief O'Neill's Visit
M:C|
L:1/8
N:"collected by Cronin"
B:O'Neill's 1705
R:Hornpipe
Z:"Transcribed by Bob Safranek, rjs@gsp.org"
K:A
   ((3EFG) | A3 B Ac ((3efg) | a2 (ag) aece |   fdBA  GABc | dBcA GEFG |
             ABAG Ac ((3efg) |   agab  aece |   fdBA  GABc | defg a2  :|
|:    (cd) | eaag    fece    |   dbbg  efge |   gbeg  begb | agab agfg |
             agfe    fece    |   fdBf  ecAc | B2 (gf) edcB | Aagb a2  :|


